X:0354
T:Genl. Carleton's Quick March.
M:6/8
L:1/8
Q:3/8=86
I: :: || DC
P:ABA % Aird uses a da capo
N:heavy double lines above and below first repeat
Z:Jack Campin * www.campin.me.uk * 2009
K:D
P:A
a/f/|d2d efe|cBc d3|e2g fad|dcd eag|\
     d2d efe|cBc d3|efe cBc|d3  d2::
P:B
A   |A2A A2A|Ace e3|afd def|ecA A3 |\
     AAA AAA|Ace e3|afd def|f3  e2|]
<end>
<start>
